static/img/showcase/hashkeydid_logo.svg

<svg fill="none" height="112" viewBox="0 0 112 112" width="112" xmlns="http://www.w3.org/2000/svg"><path d="m0 0h112v112h-112z" fill="#fff"/><g fill="#084b6f"><path d="m20.6483 43.2065v5.4698h-5.6076v-5.4698h-3.0407v13.8166h3.0407v-5.5473h5.6076v5.5473h3.0406v-13.8166z"/><path d="m61.2365 43.2065v5.4698h-5.6076v-5.4698h-3.0406v13.8166h3.0406v-5.5473h5.6076v5.5473h3.0407v-13.8166z"/><path d="m32.32 46.7641 1.8347 4.4791h-3.6695zm-1.361-3.6523-5.9263 13.9199h3.101l1.2662-3.101h5.8402l1.2662 3.101h3.1785l-5.9263-13.9199z"/><path d="m39.8829 55.0162 1.8003-2.1534c1.2403 1.025 2.5496 1.6797 4.126 1.6797 1.2404 0 1.9898-.491 1.9898-1.3007v-.0431c0-.7666-.4738-1.1628-2.7823-1.7572-2.7823-.7149-4.5825-1.4816-4.5825-4.2294v-.043c0-2.5066 2.0156-4.1691 4.8409-4.1691 2.0156 0 3.7298.6288 5.1338 1.7572l-1.5849 2.2999c-1.2232-.8528-2.4291-1.361-3.592-1.361-1.1628 0-1.7744.5341-1.7744 1.206v.043c0 .9045.5943 1.206 2.9804 1.8175 2.7995.7322 4.3844 1.74 4.3844 4.1433v.043c0 2.7478-2.0932 4.2811-5.0735 4.2811-2.0932-.0086-4.2122-.7322-5.866-2.2138z"/><path d="m74.8032 43.2065v13.8166h10.5261v-2.7048h-7.5112v-2.9028h6.5206v-2.7047h-6.5206v-2.7995h7.4078v-2.7048z"/><path d="m96.0277 43.2065-3.3594 5.5473-3.2991-5.5473h-3.5489l5.3061 8.3727v5.4439h3.0407v-5.5042l5.3147-8.3124z"/><path d="m69.3593 43.2065-2.1448 2.1449-2.1535 2.1534 2.1535 2.1449 2.1448-2.1449 2.1535-2.1534 2.1448-2.1449z"/></g><path d="m69.3507 52.7684-2.119-2.119-2.119 2.119z" fill="#ed6553"/><path d="m65.1127 52.7681 2.119 2.119 2.119-2.119z" fill="#f8664d"/><path d="m71.4697 54.8871-2.119-2.119-2.119 2.119z" fill="#fd7260"/><path d="m67.2317 54.8872 2.119 2.1276 2.119-2.1276z" fill="#fb927b"/><path d="m69.3507 57.0148h4.2466l-2.1276-2.1276z" fill="#ffbc9e"/><path d="m52.6055 62.8979 3.4627 3.437-3.4627 3.4885z" fill="#084b6f"/><path d="m66.5426 70.323v-1.7141l1.6969 1.7141z" fill="#ed6553"/><path d="m68.1965 66.9207-1.6539-1.671v-.0173h1.6711.0258v1.6883z" fill="#fc7f62"/><path d="m66.5426 66.9204h1.6539.043v1.6883z" fill="#fd7260"/><path d="m66.5426 65.2495 1.6969 1.6711h-1.6969z" fill="#fc9d8b"/><path d="m66.5426 65.2324v-1.7055l1.6969 1.7055z" fill="#fba28d"/><path d="m66.5426 63.5269h1.6969v1.7141z" fill="#ffbc9e"/><path d="m68.2395 62.6138h-1.6969v.913h1.6969z" fill="#f8664d"/><path d="m68.1965 68.6349-.0087-.0172h.0517v1.7141l-1.6969-1.7141z" fill="#f8664d"/><path d="m68.1965 68.6349-1.6539-.0172h1.6452z" fill="#f8664d"/><path d="m66.5426 68.6087v-1.6883l1.6969 1.6883z" fill="#fb927b"/><path d="m64.7681 66.0418c-.0258-.422-.1206-.8183-.2842-1.1887-.0775-.1722-.1637-.3359-.2584-.4996-.1551-.2584-.3532-.4909-.5685-.6977-.3532-.3359-.7839-.6029-1.2749-.7924s-1.0336-.2843-1.628-.2843h-2.9545v1.5074h1.6624 1.2921c.3359 0 .646.0603.9303.1637.0775.0344.155.0689.2326.112.1809.0947.3445.2153.491.3617.1981.1982.3531.448.4651.7236.0775.1895.1206.3876.1464.603.0086.1033.0173.2067.0173.3187v.0258c0 .336-.0517.6461-.1637.9217-.0603.155-.1464.3015-.2326.4307-.0689.1033-.1464.1981-.2325.2842-.1982.1982-.4394.3532-.7236.4652-.2843.112-.5944.1636-.9303.1636h-1.2921v-.9302-1.6884-1.1284h-1.671v1.1284 1.6884 1.7055.7063h2.9545c.5943 0 1.137-.0947 1.628-.2929.2929-.1119.5513-.2498.7925-.4134.1722-.112.3359-.2412.4823-.3876.3532-.336.6375-.7408.827-1.206.0172-.043.0344-.0775.0516-.1206.1637-.4307.2412-.8872.2412-1.3696v-.0258c.0086-.0947 0-.1895 0-.2843z" fill="#f8664d"/><path d="m77.3443 66.1283c-.0258-.4221-.1206-.8183-.2843-1.1887-.0775-.1723-.1636-.336-.2584-.4996-.155-.2584-.3531-.491-.5685-.6977-.3531-.336-.7838-.603-1.2748-.7925s-1.0337-.2843-1.628-.2843h-2.9546v1.5074h1.6625.0345 1.2576c.3359 0 .646.0603.9303.1637.0775.0345.155.0689.2325.112.1809.0947.3446.2153.491.3618.1981.1981.3532.4479.4652.7235.0775.1895.1206.3876.1464.603.0086.1034.0172.2067.0172.3187v.0258c0 .336-.0517.6461-.1636.9217-.0603.1551-.1465.3015-.2326.4307-.0689.1034-.1464.1981-.2326.2843-.1981.1981-.4393.3531-.7235.4651-.2843.112-.5944.1637-.9303.1637h-1.2921v-.9303-1.6883-1.1284h-1.6711v1.1284 1.6883 1.7055.7063h2.9632c.5943 0 1.137-.0947 1.628-.2928.2929-.112.5513-.2498.7925-.4135.1722-.112.3359-.2412.4823-.3876.3532-.3359.6374-.7408.8269-1.2059.0173-.0431.0345-.0776.0517-.1206.1637-.4307.2412-.8873.2412-1.3696v-.0259c.0086-.0947 0-.1895-.0086-.2842z" fill="#f8664d"/></svg>

<svg width="112" height="112" viewBox="0 0 112 112" fill="none" xmlns="http://www.w3.org/2000/svg">
<rect width="112" height="112" fill="white"/>
<path d="M20.6483 43.2065V48.6763H15.0407V43.2065H12V57.0231H15.0407V51.4758H20.6483V57.0231H23.6889V43.2065H20.6483Z" fill="#084B6F"/>
<path d="M61.2365 43.2065V48.6763H55.6289V43.2065H52.5883V57.0231H55.6289V51.4758H61.2365V57.0231H64.2772V43.2065H61.2365Z" fill="#084B6F"/>
<path d="M32.32 46.7641L34.1547 51.2432H30.4852L32.32 46.7641ZM30.959 43.1118L25.0327 57.0317H28.1337L29.3999 53.9307H35.2401L36.5063 57.0317H39.6848L33.7585 43.1118H30.959Z" fill="#084B6F"/>
<path d="M39.8829 55.0162L41.6832 52.8628C42.9235 53.8878 44.2328 54.5425 45.8092 54.5425C47.0496 54.5425 47.799 54.0515 47.799 53.2418V53.1987C47.799 52.4321 47.3252 52.0359 45.0167 51.4415C42.2344 50.7266 40.4342 49.9599 40.4342 47.2121V47.1691C40.4342 44.6625 42.4498 43 45.2751 43C47.2907 43 49.0049 43.6288 50.4089 44.7572L48.824 47.0571C47.6008 46.2043 46.3949 45.6961 45.232 45.6961C44.0692 45.6961 43.4576 46.2302 43.4576 46.9021V46.9451C43.4576 47.8496 44.0519 48.1511 46.438 48.7626C49.2375 49.4948 50.8224 50.5026 50.8224 52.9059V52.9489C50.8224 55.6967 48.7292 57.23 45.7489 57.23C43.6557 57.2214 41.5367 56.4978 39.8829 55.0162Z" fill="#084B6F"/>
<path d="M74.8032 43.2065V57.0231H85.3293V54.3183H77.8181V51.4155H84.3387V48.7108H77.8181V45.9113H85.2259V43.2065H74.8032Z" fill="#084B6F"/>
<path d="M96.0277 43.2065L92.6683 48.7538L89.3692 43.2065H85.8203L91.1264 51.5792V57.0231H94.1671V51.5189L99.4818 43.2065H96.0277Z" fill="#084B6F"/>
<path d="M69.3593 43.2065L67.2145 45.3514L65.061 47.5048L67.2145 49.6497L69.3593 47.5048L71.5128 45.3514L73.6576 43.2065H69.3593Z" fill="#084B6F"/>
<path d="M69.3507 52.7684L67.2317 50.6494L65.1127 52.7684H69.3507Z" fill="#ED6553"/>
<path d="M65.1127 52.7681L67.2317 54.8871L69.3507 52.7681H65.1127Z" fill="#F8664D"/>
<path d="M71.4697 54.8871L69.3507 52.7681L67.2317 54.8871H71.4697Z" fill="#FD7260"/>
<path d="M67.2317 54.8872L69.3507 57.0148L71.4697 54.8872H67.2317Z" fill="#FB927B"/>
<path d="M69.3507 57.0148H73.5973L71.4697 54.8872L69.3507 57.0148Z" fill="#FFBC9E"/>
<path d="M52.6055 62.8979L56.0682 66.3349L52.6055 69.8234V62.8979Z" fill="#084B6F"/>
<path d="M66.5426 70.323V68.6089L68.2395 70.323H66.5426Z" fill="#ED6553"/>
<path d="M68.1965 66.9207L66.5426 65.2497V65.2324H68.2137H68.2395V66.9207H68.1965Z" fill="#FC7F62"/>
<path d="M66.5426 66.9204H68.1965H68.2395V68.6087L66.5426 66.9204Z" fill="#FD7260"/>
<path d="M66.5426 65.2495L68.2395 66.9206H66.5426V65.2495Z" fill="#FC9D8B"/>
<path d="M66.5426 65.2324V63.5269L68.2395 65.2324H66.5426Z" fill="#FBA28D"/>
<path d="M66.5426 63.5269H68.2395V65.241L66.5426 63.5269Z" fill="#FFBC9E"/>
<path d="M68.2395 62.6138H66.5426V63.5268H68.2395V62.6138Z" fill="#F8664D"/>
<path d="M68.1965 68.6349L68.1878 68.6177H68.2395V70.3318L66.5426 68.6177L68.1965 68.6349Z" fill="#F8664D"/>
<path d="M68.1965 68.6349L66.5426 68.6177H68.1878L68.1965 68.6349Z" fill="#F8664D"/>
<path d="M66.5426 68.6087V66.9204L68.2395 68.6087H66.5426Z" fill="#FB927B"/>
<path d="M64.7681 66.0418C64.7423 65.6198 64.6475 65.2235 64.4839 64.8531C64.4064 64.6809 64.3202 64.5172 64.2255 64.3535C64.0704 64.0951 63.8723 63.8626 63.657 63.6558C63.3038 63.3199 62.8731 63.0529 62.3821 62.8634C61.8911 62.6739 61.3485 62.5791 60.7541 62.5791H57.7996V64.0865H59.462H60.7541C61.09 64.0865 61.4001 64.1468 61.6844 64.2502C61.7619 64.2846 61.8394 64.3191 61.917 64.3622C62.0979 64.4569 62.2615 64.5775 62.408 64.7239C62.6061 64.9221 62.7611 65.1719 62.8731 65.4475C62.9506 65.637 62.9937 65.8351 63.0195 66.0505C63.0281 66.1538 63.0368 66.2572 63.0368 66.3692V66.395C63.0368 66.731 62.9851 67.0411 62.8731 67.3167C62.8128 67.4717 62.7267 67.6182 62.6405 67.7474C62.5716 67.8507 62.4941 67.9455 62.408 68.0316C62.2098 68.2298 61.9686 68.3848 61.6844 68.4968C61.4001 68.6088 61.09 68.6604 60.7541 68.6604H59.462V67.7302V66.0418V64.9134H57.791V66.0418V67.7302V69.4357V70.142H60.7455C61.3398 70.142 61.8825 70.0473 62.3735 69.8491C62.6664 69.7372 62.9248 69.5993 63.166 69.4357C63.3382 69.3237 63.5019 69.1945 63.6483 69.0481C64.0015 68.7121 64.2858 68.3073 64.4753 67.8421C64.4925 67.7991 64.5097 67.7646 64.5269 67.7215C64.6906 67.2908 64.7681 66.8343 64.7681 66.3519V66.3261C64.7767 66.2314 64.7681 66.1366 64.7681 66.0418Z" fill="#F8664D"/>
<path d="M77.3443 66.1283C77.3185 65.7062 77.2237 65.31 77.06 64.9396C76.9825 64.7673 76.8964 64.6036 76.8016 64.44C76.6466 64.1816 76.4485 63.949 76.2331 63.7423C75.88 63.4063 75.4493 63.1393 74.9583 62.9498C74.4673 62.7603 73.9246 62.6655 73.3303 62.6655H70.3757V64.1729H72.0382H72.0727H73.3303C73.6662 64.1729 73.9763 64.2332 74.2606 64.3366C74.3381 64.3711 74.4156 64.4055 74.4931 64.4486C74.674 64.5433 74.8377 64.6639 74.9841 64.8104C75.1822 65.0085 75.3373 65.2583 75.4493 65.5339C75.5268 65.7234 75.5699 65.9215 75.5957 66.1369C75.6043 66.2403 75.6129 66.3436 75.6129 66.4556V66.4814C75.6129 66.8174 75.5612 67.1275 75.4493 67.4031C75.389 67.5582 75.3028 67.7046 75.2167 67.8338C75.1478 67.9372 75.0703 68.0319 74.9841 68.1181C74.786 68.3162 74.5448 68.4712 74.2606 68.5832C73.9763 68.6952 73.6662 68.7469 73.3303 68.7469H72.0382V67.8166V66.1283V64.9999H70.3671V66.1283V67.8166V69.5221V70.2284H73.3303C73.9246 70.2284 74.4673 70.1337 74.9583 69.9356C75.2512 69.8236 75.5096 69.6858 75.7508 69.5221C75.923 69.4101 76.0867 69.2809 76.2331 69.1345C76.5863 68.7986 76.8705 68.3937 77.06 67.9286C77.0773 67.8855 77.0945 67.851 77.1117 67.808C77.2754 67.3773 77.3529 66.9207 77.3529 66.4384V66.4125C77.3615 66.3178 77.3529 66.223 77.3443 66.1283Z" fill="#F8664D"/>
</svg>
